lib/brands/icons/redux.svg

<svg xmlns="http://www.w3.org/2000/svg" fill="none" aria-hidden="true" viewBox="0 0 48 48"><g id="redux-Icon"><path id="Vector" fill="#764ABC" d="M30.9442 30.7804C32.2727 30.6429 33.2806 29.4976 33.2348 28.1232C33.189 26.7488 32.0437 25.6493 30.6693 25.6493H30.5777C29.1575 25.6951 28.0581 26.8862 28.1039 28.3064C28.1497 28.9936 28.4246 29.5892 28.8369 30.0015C27.2793 33.071 24.8971 35.3159 21.3238 37.1942C18.8958 38.477 16.3761 38.9351 13.8565 38.6144C11.795 38.3395 10.1916 37.4233 9.18373 35.9114C7.71776 33.6666 7.58032 31.2385 8.81724 28.8104C9.68765 27.0695 11.062 25.7867 11.9324 25.1453C11.7492 24.5498 11.4743 23.5419 11.3369 22.8089C4.6942 27.6192 5.38137 34.1247 7.39708 37.1942C8.90886 39.4849 11.9782 40.9051 15.3683 40.9051C16.2845 40.9051 17.2007 40.8134 18.117 40.5844C23.9808 39.439 28.4246 35.9572 30.9442 30.7804ZM39.007 25.0995C35.5253 21.0221 30.3945 18.7773 24.5306 18.7773H23.7976C23.3853 17.9527 22.5149 17.4029 21.5528 17.4029H21.4612C20.0411 17.4487 18.9416 18.6399 18.9874 20.0601C19.0332 21.4345 20.1785 22.534 21.5528 22.534H21.6445C22.6523 22.4882 23.5227 21.8468 23.8892 20.9763H24.7138C28.1955 20.9763 31.4939 21.9842 34.4717 23.9542C36.7623 25.466 38.4115 27.436 39.3277 29.8183C40.1065 31.7424 40.0607 33.6208 39.2361 35.2242C37.9534 37.6523 35.8002 38.9809 32.9599 38.9809C31.1274 38.9809 29.3866 38.4312 28.4704 38.0188C27.9664 38.477 27.0502 39.21 26.4089 39.6681C28.3788 40.5844 30.3945 41.0883 32.3185 41.0883C36.7164 41.0883 39.9691 38.6602 41.206 36.2321C42.5345 33.575 42.4429 28.9936 39.007 25.0995ZM15.7348 31.5592C15.7806 32.9336 16.9259 34.0331 18.3002 34.0331H18.3918C19.812 33.9873 20.9115 32.7961 20.8657 31.3759C20.8199 30.0015 19.6746 28.902 18.3002 28.902H18.2086C18.117 28.902 17.9795 28.902 17.8879 28.9478C16.0096 25.8325 15.2308 22.4424 15.5057 18.7773C15.689 16.0285 16.6052 13.6462 18.2086 11.6763C19.5371 9.98117 22.1026 9.15653 23.8434 9.11071C28.6994 9.01909 30.7609 15.0664 30.8984 17.4945C31.4939 17.632 32.5018 17.9527 33.189 18.1817C32.6392 10.76 28.0581 6.91168 23.6602 6.91168C19.5371 6.91168 15.7348 9.88954 14.223 14.2876C12.1157 20.1517 13.49 25.7867 16.0555 30.2306C15.8264 30.5513 15.689 31.0552 15.7348 31.5592Z"/></g></svg>

<svg xmlns="http://www.w3.org/2000/svg" fill="none" aria-hidden="true" viewBox="0 0 48 48"><path fill="#764ABC" d="M30.944 30.78a2.566 2.566 0 0 0 2.29-2.657 2.573 2.573 0 0 0-2.565-2.474h-.091a2.563 2.563 0 0 0-2.474 2.657c.046.688.32 1.283.733 1.695-1.558 3.07-3.94 5.315-7.513 7.193-2.428 1.283-4.948 1.741-7.468 1.42-2.061-.274-3.664-1.19-4.672-2.703-1.466-2.244-1.604-4.673-.367-7.1.87-1.741 2.245-3.024 3.115-3.666a24.714 24.714 0 0 1-.595-2.336c-6.643 4.81-5.956 11.316-3.94 14.385 1.512 2.29 4.581 3.711 7.971 3.711.917 0 1.833-.092 2.749-.32 5.864-1.146 10.308-4.628 12.827-9.805Zm8.063-5.68c-3.482-4.078-8.612-6.323-14.476-6.323h-.733a2.517 2.517 0 0 0-2.245-1.374h-.092a2.563 2.563 0 0 0-2.474 2.657 2.573 2.573 0 0 0 2.566 2.474h.091a2.58 2.58 0 0 0 2.245-1.558h.825c3.482 0 6.78 1.008 9.758 2.978 2.29 1.512 3.94 3.482 4.856 5.864.778 1.924.733 3.803-.092 5.406-1.283 2.428-3.436 3.757-6.276 3.757-1.833 0-3.573-.55-4.49-.962a27.053 27.053 0 0 1-2.061 1.65c1.97.915 3.986 1.42 5.91 1.42 4.397 0 7.65-2.429 8.887-4.857 1.328-2.657 1.237-7.238-2.199-11.133Zm-23.272 6.46a2.573 2.573 0 0 0 2.565 2.473h.092a2.563 2.563 0 0 0 2.474-2.657 2.573 2.573 0 0 0-2.566-2.474h-.091c-.092 0-.23 0-.321.046-1.878-3.116-2.657-6.506-2.382-10.17.183-2.75 1.1-5.132 2.703-7.102 1.328-1.695 3.894-2.52 5.634-2.565 4.856-.092 6.918 5.955 7.055 8.383.596.138 1.604.459 2.291.688-.55-7.422-5.13-11.27-9.529-11.27-4.123 0-7.925 2.978-9.437 7.376-2.107 5.864-.733 11.499 1.832 15.943-.229.32-.366.824-.32 1.328Z"/></svg>
